X: 3341
T: The Bob of Fattercairn.   a Reel.
%R: reel
B: Niel Gow & Sons "A Third Collection of Strathspey Reels, etc." v.3 p.34 #1
Z: 2022 John Chambers <jc:trillian.mit.edu>
M: C
L: 1/8
K: G
% - - - - - - - - - -
V: 1 staves=2
B/c/ !segno!|\
dBGB dBGB | dBde Tf2df | e^cAc ecAc | e>def {ef}g2fe |\
dBGB dBGB | dBde Tf2df/g/ | aefd Te>cBa | A/A/A (Bd) e2g2 |]
d>gBg dgBg | dgBg Tf2df | ea^ca Aaca | Te>def {ef}g2fe |\
dgBg dgBd | dgBg Tf2df/g/ | aefd Te>cBa | A/A/A (Bd) e2!segno!g2 |]
% - - - - - - - - - -
% Voice 2 preserves the staff layout in the book.
V: 2 clef=bass middle=d
z !segno!|\
g2g2 g2g2 | g2g2 g2g2 | a2a2 a2a2 | a2a2 a2a2 |\
g2g2 g2g2 | g2g2 g2g2 | a2a2 a2a2 | a2a2 a2a2 |]
g2g2 g2g2 | g2g2 g2g2 | a2a2 a2a2 | a2a2 a2a2 |\
g2g2 g2g2 | g2g2 g2g2 | a2a2 a2a2 | a2a2 a2!segno!a2 |]


